T: Little Burnt Potato, The
M: 6/8
L: 1/8
K: Gmaj
d^cd edc | dBG D3 | BAB c2 B | E3 E3 |A2 G A2 G | FGA d3 | ded cBA |[1 B3 :|[2 G3 G2 D |||: B2 D B2 D | B3 B2 A | GBd dcB | c3 c3 |c2 d cBA | GFE D3 |[1 d^cd ed=c | B3 B3 :|[2 ded cBA | G3 |]
